X:9265
T:Lapp-Nils Favorit
R:Polska
O:Sweden
M:3/4
C:Lapp-Nils
A:J\"amtland
K:F
Ac (3BAG G<(F|F)A cc A2|\
BA Bc de|(3gag fc (3AcA|\
zF EG G<(F|F)A cc A2|
BA Bc df|e<c f4::\
fe fg ab|(3bag (3faf ef|
(3ceg fd cB|AB {A}c4|\
fe fg ab|(3gag (3fed cA|Bc dB (3AcA|G2F4:|


